!!!OTL: 65. Gas-nign
!!!Genre:	Gas-nign
!!!Mode:	Freygish
!!!Listening/dance:	listening
!!!:	*F:
!!!One_Mode:	no
**kern
*I"P1
*clefG2
*k[b-e-a-]
*G:frey
*M3/4
*>A
4g
=1
(16qqdd/LL
16qqee-/JJ
4dd)
4g
12ee-L
12dd
12ccJ
=2
16ddLL
16ggJ
8ggJ
4dd
4bn
=3
(16bnLL
16ddJ
8ccJ
8bL)
8a-
8g
8a-J
=4
(8qcc/
4.bn)
8r
4g
=5
(16qqdd/LL
16qqee-/JJ
4dd)
4g
12ee-L
12dd
12ccJ
=6
(8ff~L
8ee-~J)
(8ddL
8ccJ)
(8bnL
8a-J)
=7
(8bn~^L
8cc~^J)
(8dd~L
8cc~J)
(8bL
8a-J)
=8
(8qa-/
4.g)
8r
4g
=9
4dd
4g
12ee-L
12dd
12ccJ
=10
8cc
(8qee-/
4.dd)
4bn
=11
8bnL
(8qdd/
8ccJ)
8ddL
8ccJ
8ddL
8ccJ
=12
(8qcc/
4.bn)
8r
4f
=13
(8ff~L
8ee-~J)
8ddL
8cc
8bn
8ccJ
=14
(8dd~L
8cc~J)
(8bnL
8a-J)
(8gL
8fJ)
=15
8fL
8gJ
4g
(8.ddL
16bnJk)
=16
2g
4r
*>bM
*F:
=17||
*>B
*k[b-]
*F:
!LO:TX:a:i:t=F-major
(8qc/
4f)
4a
4cc
=18
(8ccL
8b-J)
16b-LL
16cc
16b-
16aJJ
(16aKL
8.ccJ)
=19
(8ccL
8b-J)
(16b-LL
16cc
16b-
16aJJ)
(16aLL
16b-
16a
16gJJ)
=20
(8gL
8fJ)
(8fL
8cJ)
4cc
=21
8f
8r
8.aL
16aJk
4cc
=22
(8.ccL
16b-Jk)
(8qcc/
8b-L)
8aJ
(8qa/
8ccL)
8ddJ
*>eM
*G:frey
!LO:TX:a:i:t=G-freygish
=23
(8qcc/
2bn)
(16a-XLL
16gJ
8fJ)
=24
(8qa-X/
2.g)
*>bM
*F:
!LO:TX:a:i:t=F-major
=25
(8qc/
8f)
8r
4an
4cc
=26
(16ccKL
8.b-J)
(16b-KL
8.aJ)
(16aKL
8.ccJ)
=27
(16ccKL
8.b-J)
(16b-KL
8.aJ)
(16aKL
8.ddJ)
=28
(16qqa/LL
16qqb-/JJ
2a)
(16qqg/LL
16qqa/JJ
8gL)
8fJ
=29
4f
4r
(8aL
8ccJ)
=30
(16ccKL
8.b-'J)
(16b-KL
8.aJ)
(16ee-XLL
16ddJ
8ccJ)
*>eM
*G:frey
!LO:TX:a:i:t=G-freygish
=31
2bn
16a-XLL
16gJ
8fJ
=32
(8qa-X/
2.g)
=33||
*>C
*k[b-e-a-]
4.dd
8g
12ee-L
12dd
12ccJ
=34
4.dd
8g
12ee-L
12dd
12ccJ
=35
8bnL
8ddJ
8ccL
8bJ
12a-L
12g
12fJ
=36
8gL
8a-J
8bnL
8ccJ
[4dd
=37
4dd]
8r
8g
12ee-L
12dd
12ccJ
=38
4.dd
8g
(12ee-L
12dd)
12ccJ
=39
8bnL
8ddJ
8ccL
8bJ
12a-L
12g
12fJ
=40
4g
4gg
4gg
=41
4dd
8r
8g
12ee-L
12dd
12ccJ
=42
4dd
8r
8g
12ee-L
12dd
12ccJ
=43
8bnL
8ddJ
8ccL
8bJ
12a-L
12g
12fJ
=44
8r
8g'
8bnL
8ccJ
4dd
=45
4dd
8r
8g
12ee-L
12dd
12ccJ
=46
4dd
8r
16f#XLL
16gJJ
(24a-LL
24bn
24cc
24dd
24ee-
24ff#XJJ
=47
4gg)
4r
(8.ddL
16bnJk)
=48
4g
4r
4r
==49
4%3r
=
*-
